X: 17
T: No_111_Tobacco_Dance_Song_(c).krn
N: Derived from No_111_Tobacco_Dance_Song_(c).krn
%%abc-version 2.0
%%abcx-abcm2ps-target-version 5.9.1 (29 Sep 2008)
%%abc-creator hum2abc beta
%%abcx-conversion-date 2019/03/15 08:35:44
%%humdrum-veritas 970631213
%%humdrum-veritas-data 3170413868
%%linebreak <none>
%%barnumbers 0
L: 1/8
M: 3/4
K: C clef=bass
[K:clef=bass][M:3/4](3DCDC3z [I:setbarnb 2]| 
(3EDCG,2G,2 | 
(3CG,A,G,2G, z ||  
[M:2/4](3D,G,G,G,2 ||  
[M:3/4](3CG,A,G,2G, z ||  
[M:2/4](3D,G,G,G,2 :|]  
(3CG,A,G,2 |]  



